X:1
T:Julcsika, Tercsike
C:Hungarian song
Z:Public Domain
L:1/8
M:2/4
K:Eb
V:1 treble 
%%MIDI program 52
V:1
"Cm" G2 CD |"G" E2 DC |"Cm" GG CD |"G" E2 DC |"G" D2 D2 | G,2 z2 | CD ED |"Cm" C2 z2!fine! :| %8
w: Jul- csi- ka,|Ter- csi- ke,|jöj- jön ve- lem|Er- csi- be,|ká- vé-|ra,|vár a nagy- ma-|ma!|
"Bb" B2 AG | B2 AG |"Fm" AB c2 |"Bb" B2 z2 |"Fm" A2 AA | A A2 G | FG A2 |"G" G2 z2!D.C.! |] %16
w: Vár- hat a|nagy- ma- ma,|meg a ká-|vé,|mert ez a|va- sár- nap|a ba- bá-|mé!|

